docs/img/svg/ok.svg

<svg width="24" height="24" viewBox="0 0 24 24" fill="none" xmlns="http://www.w3.org/2000/svg">
<circle cx="12" cy="12" r="12" fill="#F7931E"/>
<path d="M11.6387 14.7589C10.5921 14.6497 9.64849 14.392 8.84059 13.7601C8.74034 13.6815 8.63685 13.6057 8.54537 13.5179C8.19175 13.1783 8.15612 12.7893 8.43593 12.3885C8.6753 12.0455 9.07713 11.9537 9.4948 12.1506C9.57567 12.1888 9.65273 12.2365 9.72653 12.2877C11.2322 13.3222 13.3006 13.3508 14.8119 12.3342C14.9616 12.2194 15.1217 12.1258 15.3072 12.078C15.6679 11.9854 16.0042 12.1178 16.1978 12.4334C16.4189 12.7938 16.4161 13.1456 16.1436 13.4254C15.7257 13.8544 15.223 14.1647 14.6646 14.3813C14.1365 14.5861 13.558 14.6892 12.9856 14.7576C13.072 14.8516 13.1127 14.8978 13.1667 14.9521C13.944 15.7332 14.7248 16.511 15.4996 17.2944C15.7636 17.5613 15.8187 17.8923 15.6734 18.2028C15.5145 18.5422 15.1587 18.7654 14.8099 18.7415C14.5889 18.7262 14.4166 18.6162 14.2634 18.462C13.6768 17.8717 13.0792 17.2923 12.5044 16.6908C12.3371 16.5159 12.2567 16.549 12.1091 16.7008C11.5189 17.3084 10.9192 17.9066 10.3158 18.5014C10.0449 18.7685 9.72258 18.8166 9.40841 18.664C9.07445 18.5021 8.86194 18.1612 8.87834 17.8187C8.88965 17.5869 9.00361 17.4099 9.16267 17.2511C9.93197 16.483 10.6992 15.7128 11.4666 14.9434C11.5174 14.8922 11.5647 14.8379 11.6387 14.7589Z" fill="white"/>
<path d="M12.2762 12.0832C10.4092 12.0769 8.87821 10.5291 8.8891 8.65905C8.89984 6.76839 10.4318 5.24478 12.3172 5.25001C14.2065 5.2551 15.7229 6.80063 15.7134 8.71094C15.7038 10.5771 14.1622 12.0897 12.2762 12.0832ZM13.973 8.66358C13.9698 7.73507 13.2303 6.99589 12.3037 6.99504C11.3692 6.99405 10.6231 7.74667 10.6303 8.68365C10.6372 9.60862 11.3831 10.3426 12.3123 10.3392C13.2387 10.3359 13.9761 9.59194 13.973 8.66358Z" fill="white"/>
</svg>

<svg width="24" height="24" viewBox="0 0 24 24" fill="none" xmlns="http://www.w3.org/2000/svg"><circle cx="12" cy="12" r="12" fill="#F7931E"/><path d="M11.639 14.759c-1.047-.11-1.99-.367-2.798-.999-.1-.079-.204-.154-.296-.242-.353-.34-.389-.729-.11-1.13.24-.342.642-.434 1.06-.237.08.038.158.085.232.137 1.505 1.034 3.574 1.063 5.085.046.15-.115.31-.208.495-.256.36-.093.697.04.89.355.222.36.22.713-.053.992-.418.43-.921.74-1.48.956-.527.205-1.106.308-1.678.377.086.094.127.14.18.194.778.781 1.559 1.559 2.334 2.342.264.267.319.598.173.909-.159.34-.514.562-.863.538-.221-.015-.393-.125-.547-.279-.586-.59-1.184-1.17-1.759-1.771-.167-.175-.247-.142-.395.01-.59.607-1.19 1.206-1.793 1.8-.271.267-.593.316-.908.163-.334-.162-.546-.503-.53-.845.012-.232.126-.41.285-.568.769-.768 1.536-1.538 2.304-2.308.05-.05.098-.105.172-.184z" fill="#fff"/><path d="M12.276 12.083C10.41 12.077 8.878 10.53 8.89 8.66a3.422 3.422 0 013.428-3.409c1.89.005 3.406 1.55 3.396 3.46-.01 1.867-1.55 3.38-3.437 3.373zm1.697-3.42a1.664 1.664 0 00-1.67-1.668 1.667 1.667 0 00-1.673 1.689 1.664 1.664 0 001.682 1.655 1.66 1.66 0 001.661-1.675z" fill="#fff"/></svg>
